public/dist/images/ico-skype.svg

<?xml version="1.0" encoding="UTF-8" standalone="no"?>
<svg width="50px" height="50px" viewBox="0 0 50 50" version="1.1" xmlns="http://www.w3.org/2000/svg" xmlns:xlink="http://www.w3.org/1999/xlink" xmlns:sketch="http://www.bohemiancoding.com/sketch/ns">
    <!-- Generator: Sketch 3.2.2 (9983) - http://www.bohemiancoding.com/sketch -->
    <title>Path 139 + скайп</title>
    <desc>Created with Sketch.</desc>
    <defs></defs>
    <g id="Welcome" stroke="none" stroke-width="1" fill="none" fill-rule="evenodd" sketch:type="MSPage">
        <g id="Home-4" sketch:type="MSArtboardGroup" transform="translate(-1163.000000, -2531.000000)">
            <g id="подвал" sketch:type="MSLayerGroup" transform="translate(57.000000, 2504.000000)">
                <g id="сети" transform="translate(807.000000, 26.000000)" sketch:type="MSShapeGroup">
                    <g id="Path-139-+-скайп" transform="translate(299.000000, 1.000000)">
                        <path d="M1.76422888,20.5665019 C10.3713404,-9.51226264 36.6488547,-2.95832765 46.5268458,17.3955708 C56.4048368,37.7494693 42.7279713,51.1976714 30.2203937,49.9366644 C17.712816,48.6756573 -6.84288269,50.6452665 1.76422888,20.5665019 Z" id="Path-139" fill="#6CC1ED" transform="translate(25.000000, 25.000000) scale(1, -1) translate(-25.000000, -25.000000) "></path>
                        <path d="M25.0927212,16.2304604 C24.6447938,16.2304604 24.2056486,16.2661682 23.7783056,16.3342151 C23.0121013,15.8496673 22.1002441,15.5672727 21.1188929,15.5672727 C18.4279268,15.5672727 16.2491752,17.6830594 16.2491752,20.293702 C16.2491752,21.2435962 16.5372525,22.1260499 17.0333258,22.8669862 C16.9665047,23.2717978 16.9323478,23.6863449 16.9323478,24.1086735 C16.9323478,28.4601712 20.5846708,31.9873246 25.0926865,31.9873246 C25.6014645,31.9873246 26.0968089,31.9392875 26.5782337,31.8548689 C27.3262835,32.3052248 28.2074203,32.5672727 29.1520111,32.5672727 C31.842283,32.5672727 34.0219025,30.450947 34.0219025,27.8405739 C34.0217983,26.8537929 33.7108803,25.9363389 33.176797,25.1778856 C33.2256025,24.8275452 33.2536848,24.4713769 33.2536848,24.1088083 C33.2536848,19.7579843 29.5994873,16.2304604 25.0927212,16.2304604 Z M21.2026395,26.2389004 C22.2145268,26.1729795 22.822104,27.3577601 23.3621687,27.6873309 C23.9015733,28.0156815 25.9540139,28.7637571 27.0381392,27.5548789 C28.2186513,26.2389004 26.2530769,25.5579321 24.8123136,25.3517978 C22.755217,25.054696 20.1580209,23.9692205 20.3600718,21.8301285 C20.5621921,19.6923921 22.2218583,18.5963082 23.968495,18.4416906 C26.194946,18.2445378 27.6443612,18.7706852 28.790787,19.7248611 C30.1164005,20.8273507 29.3991286,22.0598519 28.5545456,22.1590214 C27.7132983,22.2576147 26.7684369,20.3456364 24.9134259,20.3168955 C23.0014306,20.2876124 21.7092086,22.2576147 24.0695726,22.8176207 C26.4311527,23.3770166 28.9601414,23.6068418 29.8708818,25.7126175 C30.7822475,27.8185966 28.4548232,30.0550957 25.8569322,30.187107 C23.2611607,30.3189828 22.046458,29.7588074 20.9337016,28.7402018 C19.6909933,27.6024979 20.1901962,26.3048553 21.2026395,26.2389004 Z" id="скайп" fill="#FFFFFF"></path>
                    </g>
                </g>
            </g>
        </g>
    </g>
</svg>

<svg width="50" height="50" viewBox="0 0 50 50" xmlns="http://www.w3.org/2000/svg"><title>Path 139 + скайп</title><desc>Created with Sketch.</desc><g fill="none"><path d="M1.764 29.433c8.607 30.08 34.885 23.525 44.763 3.17 9.878-20.352-3.8-33.8-16.307-32.54-12.507 1.26-37.063-.708-28.456 29.37z" fill="#6CC1ED"/><path d="M25.093 16.23c-.448 0-.887.036-1.315.104-.766-.484-1.678-.767-2.66-.767-2.69 0-4.87 2.116-4.87 4.727 0 .95.29 1.832.785 2.573-.066.405-.1.82-.1 1.242 0 4.35 3.652 7.877 8.16 7.877.508 0 1.004-.048 1.485-.132.748.45 1.63.712 2.574.712 2.69 0 4.87-2.116 4.87-4.726 0-.986-.31-1.904-.845-2.662.05-.35.077-.707.077-1.07 0-4.35-3.655-7.878-8.16-7.878zm-3.89 10.01c1.012-.067 1.62 1.118 2.16 1.447.54.33 2.59 1.077 3.675-.132 1.18-1.316-.785-1.997-2.226-2.203-2.057-.297-4.654-1.383-4.452-3.522.202-2.138 1.862-3.234 3.608-3.388 2.227-.197 3.676.33 4.823 1.283 1.326 1.102.61 2.335-.235 2.434-.842.098-1.787-1.814-3.642-1.843-1.912-.03-3.204 1.94-.843 2.5 2.36.56 4.89.79 5.8 2.896.912 2.106-1.415 4.342-4.013 4.474-2.596.132-3.81-.428-4.923-1.447-1.243-1.138-.744-2.435.27-2.5z" fill="#fff"/></g></svg>
